assets/images/login-connectors/rabby.svg

<svg width="100" height="100" viewBox="0 0 100 100" fill="none" xmlns="http://www.w3.org/2000/svg">
<g clip-path="url(#clip0_5425_10672)">
<path d="M100 50C100 22.3858 77.6142 0 50 0C22.3858 0 0 22.3858 0 50C0 77.6142 22.3858 100 50 100C77.6142 100 100 77.6142 100 50Z" fill="url(#paint0_linear_5425_10672)"/>
<path d="M80.9313 54.4721C83.3844 48.9706 71.25 33.5971 59.6563 27.1925C52.3484 22.2315 44.7344 22.9128 43.1906 25.0909C39.8063 29.8721 54.3984 33.9237 64.1578 38.6503C62.0594 39.5643 60.0828 41.2065 58.9203 43.3034C55.2813 39.319 47.2953 35.8862 37.9266 38.6503C31.6141 40.5143 26.3641 44.905 24.3375 51.5393C23.7312 51.272 23.0677 51.1602 22.4072 51.2141C21.7467 51.2681 21.1102 51.486 20.5552 51.8482C20.0003 52.2104 19.5446 52.7054 19.2293 53.2883C18.9141 53.8712 18.7493 54.5235 18.75 55.1862C18.7492 55.709 18.8513 56.2269 19.0507 56.7102C19.25 57.1936 19.5426 57.6329 19.9117 58.0032C20.2808 58.3735 20.7192 58.6674 21.2019 58.8683C21.6846 59.0691 22.2022 59.1729 22.725 59.1737C23.1313 59.1737 24.4031 58.9003 24.4031 58.9003L44.7328 59.0471C36.6031 71.9893 30.1781 73.88 30.1781 76.1221C30.1781 78.3643 36.325 77.7565 38.6344 76.9206C49.6844 72.9206 61.5531 60.4518 63.5891 56.8628C72.1422 57.9331 79.3297 58.0596 80.9313 54.4721Z" fill="url(#paint1_linear_5425_10672)"/>
<path fill-rule="evenodd" clip-rule="evenodd" d="M64.1457 38.6539C64.5988 38.4758 64.5269 37.8055 64.4019 37.2789C64.116 36.0696 59.191 31.1883 54.566 29.0024C48.2628 26.0242 43.6222 26.1774 42.9363 27.5492C44.2191 30.1899 50.1707 32.6696 56.3894 35.2586C59.041 36.3633 61.741 37.4883 64.1472 38.6524L64.1457 38.6539Z" fill="url(#paint2_linear_5425_10672)"/>
<path fill-rule="evenodd" clip-rule="evenodd" d="M56.1589 65.2237C54.8839 64.7346 53.4448 64.2862 51.8073 63.8799C53.5526 60.7456 53.9198 56.1065 52.2714 53.1737C49.9589 49.0581 47.0526 46.8674 40.3058 46.8674C36.5933 46.8674 26.6011 48.1206 26.423 56.4924C26.4042 57.369 26.423 58.1737 26.4855 58.9143L44.7355 59.0471C42.2745 62.9627 39.9698 65.8674 37.9542 68.0752C40.3761 68.6987 42.373 69.2206 44.2089 69.7002C45.9495 70.1565 47.5433 70.5737 49.2105 71.0002C51.6389 69.214 53.9592 67.2851 56.1589 65.2237Z" fill="url(#paint3_linear_5425_10672)"/>
<path d="M24.085 58.0561C24.8303 64.4155 28.4319 66.9061 35.7912 67.6436C43.1506 68.3811 47.3709 67.8858 52.9912 68.3998C57.685 68.828 61.8756 71.228 63.4319 70.3983C64.8303 69.6514 64.0475 66.9545 62.1756 65.2264C59.749 62.9826 56.3897 61.4233 50.4787 60.8702C51.6569 57.6342 51.3272 53.0967 49.4975 50.628C46.8522 47.0592 41.9694 45.4451 35.7912 46.1498C29.335 46.8873 23.1506 50.0764 24.085 58.0561Z" fill="url(#paint4_linear_5425_10672)"/>
</g>
<defs>
<linearGradient id="paint0_linear_5425_10672" x1="29.5062" y1="48.2344" x2="99.9641" y2="65.5156" gradientUnits="userSpaceOnUse">
<stop stop-color="#8697FF"/>
<stop offset="1" stop-color="#ABB7FF"/>
</linearGradient>
<linearGradient id="paint1_linear_5425_10672" x1="37.1922" y1="49.6003" x2="80.4234" y2="61.819" gradientUnits="userSpaceOnUse">
<stop stop-color="white"/>
<stop offset="1" stop-color="white"/>
</linearGradient>
<linearGradient id="paint2_linear_5425_10672" x1="73.1144" y1="48.7774" x2="41.8316" y2="17.5242" gradientUnits="userSpaceOnUse">
<stop stop-color="#8697FF"/>
<stop offset="1" stop-color="#8697FF" stop-opacity="0"/>
</linearGradient>
<linearGradient id="paint3_linear_5425_10672" x1="57.0261" y1="66.3159" x2="27.0261" y2="49.1268" gradientUnits="userSpaceOnUse">
<stop stop-color="#8697FF"/>
<stop offset="1" stop-color="#8697FF" stop-opacity="0"/>
</linearGradient>
<linearGradient id="paint4_linear_5425_10672" x1="39.7631" y1="49.278" x2="60.0912" y2="75.0202" gradientUnits="userSpaceOnUse">
<stop stop-color="white"/>
<stop offset="0.984" stop-color="#D1D8FF"/>
</linearGradient>
<clipPath id="clip0_5425_10672">
<rect width="100" height="100" fill="white"/>
</clipPath>
</defs>
</svg>

<svg xmlns="http://www.w3.org/2000/svg" fill="none" viewBox="0 0 100 100">
  <g clip-path="url(#clip0_5425_10672)">
    <path fill="url(#paint0_linear_5425_10672)" d="M100 50c0-27.614-22.386-50-50-50S0 22.386 0 50s22.386 50 50 50 50-22.386 50-50Z"/>
    <path fill="url(#paint1_linear_5425_10672)" d="M80.931 54.472c2.453-5.501-9.681-20.875-21.275-27.28-7.308-4.96-14.922-4.28-16.465-2.101-3.385 4.781 11.207 8.833 20.967 13.56-2.099.913-4.075 2.555-5.238 4.652-3.639-3.984-11.625-7.417-20.993-4.653-6.313 1.864-11.563 6.255-13.59 12.89a3.982 3.982 0 0 0-5.286 5.17 3.981 3.981 0 0 0 3.674 2.464c.406 0 1.678-.274 1.678-.274l20.33.147C36.603 71.99 30.178 73.88 30.178 76.122c0 2.242 6.147 1.635 8.456.799 11.05-4 22.92-16.47 24.955-20.058 8.553 1.07 15.74 1.197 17.342-2.39Z"/>
    <path fill="url(#paint2_linear_5425_10672)" fill-rule="evenodd" d="M64.146 38.654c.453-.178.38-.849.256-1.375-.286-1.21-5.211-6.09-9.836-8.277-6.303-2.978-10.944-2.825-11.63-1.453 1.283 2.64 7.235 5.12 13.453 7.71 2.652 1.104 5.352 2.23 7.758 3.393l-.001.002Z" clip-rule="evenodd"/>
    <path fill="url(#paint3_linear_5425_10672)" fill-rule="evenodd" d="M56.159 65.224a37.089 37.089 0 0 0-4.352-1.344c1.746-3.134 2.113-7.774.464-10.706-2.312-4.116-5.218-6.307-11.965-6.307-3.713 0-13.705 1.254-13.883 9.625-.019.877 0 1.682.063 2.422l18.25.133c-2.461 3.916-4.766 6.82-6.782 9.028 2.422.624 4.419 1.146 6.255 1.625 1.74.456 3.334.874 5.002 1.3a76.127 76.127 0 0 0 6.948-5.776Z" clip-rule="evenodd"/>
    <path fill="url(#paint4_linear_5425_10672)" d="M24.085 58.056c.745 6.36 4.347 8.85 11.706 9.588 7.36.737 11.58.242 17.2.756 4.694.428 8.885 2.828 10.44 1.998 1.4-.747.617-3.444-1.255-5.172-2.427-2.243-5.786-3.803-11.697-4.356 1.178-3.236.848-7.773-.981-10.242-2.646-3.569-7.529-5.183-13.707-4.478-6.456.737-12.64 3.926-11.706 11.906Z"/>
  </g>
  <defs>
    <linearGradient id="paint0_linear_5425_10672" x1="29.506" x2="99.964" y1="48.234" y2="65.516" gradientUnits="userSpaceOnUse">
      <stop stop-color="#8697FF"/>
      <stop offset="1" stop-color="#ABB7FF"/>
    </linearGradient>
    <linearGradient id="paint1_linear_5425_10672" x1="37.192" x2="80.423" y1="49.6" y2="61.819" gradientUnits="userSpaceOnUse">
      <stop stop-color="#fff"/>
      <stop offset="1" stop-color="#fff"/>
    </linearGradient>
    <linearGradient id="paint2_linear_5425_10672" x1="73.114" x2="41.832" y1="48.777" y2="17.524" gradientUnits="userSpaceOnUse">
      <stop stop-color="#8697FF"/>
      <stop offset="1" stop-color="#8697FF" stop-opacity="0"/>
    </linearGradient>
    <linearGradient id="paint3_linear_5425_10672" x1="57.026" x2="27.026" y1="66.316" y2="49.127" gradientUnits="userSpaceOnUse">
      <stop stop-color="#8697FF"/>
      <stop offset="1" stop-color="#8697FF" stop-opacity="0"/>
    </linearGradient>
    <linearGradient id="paint4_linear_5425_10672" x1="39.763" x2="60.091" y1="49.278" y2="75.02" gradientUnits="userSpaceOnUse">
      <stop stop-color="#fff"/>
      <stop offset=".984" stop-color="#D1D8FF"/>
    </linearGradient>
    <clipPath id="clip0_5425_10672">
      <path fill="#fff" d="M0 0h100v100H0z"/>
    </clipPath>
  </defs>
</svg>
